X:1
T:A Meteor Bright Its Wondrous Light
T:Edwin Henry Lemare (1865-1934)
T:A Meteor Bright Its Wondrous Light
T:Public Domain
T:Public Domain
C:Edwin Henry Lemare (1865-1934)
Z:Public Domain
%%score ( 1 2 ) ( 3 4 )
L:1/8
M:6/8
K:G
V:1 treble 
V:2 treble 
V:3 bass 
V:4 bass 
V:1
 [GB] | Bc[Gd] [Ge]2 [Gd] | [FB]2 [FA] G2 [DG] | [EA]2 [EA] (AB)[Dc] | [DB]3- [DB]2 [GB] | %5
w: 1.~A|me- te- or bright its|drous light O’er Beth-|ci- ty shed, * To|the * way|
w: 2.~The|wi- se men came to|His Name And own|Sav- ior King, * And|herd * swains|
w: 3.~But|heav- en- ly choirs at-|their lyres To hail|Prin- ce’s birth, * And|ous * song|
 (Bc)[Gd] [Ge]2 [Gd] | [FB]2 [FA] G2 [DG] | (AB)[Ec] [DB]2 [CA] | [B,G]3- [B,G]2 [DA] | %9
w: where * Je- sus lay,|on His lone- ly|No * no- bles wait,|pomp * or|
w: from * far- off plains|hearts’ glad in- cense|So * low- ly born,|was * the|
w: from * an- gel throng|ed the ear of|The * star is gone—|song * flows|
 (AB)[Dc] [DB]2 G | [Gd]2 [FA] [GB]2 [=FG] | ([Ee][Gd])[GB] (AG)[^CE] | [DA]3- [DA]2 D | %13
w: state * Sur- rounds the|vine, But o’er His|head * bright cir- * cles|In * gold-|
w: scorn * Of na- tions,|priests; No bel- fry|chime * that Christ- * mas-|Rang * at|
w: on * To her- ald|days; And truth’s pure|beams * in glow- * ing|Make * clear|
 ([DB][Gc])[Gd] [Ge]2 [Gd] | [FB]2 [FA] G2 [DG] | (AB)[Ec] [DB]2 [CA] | [B,G]3- [B,G]2 |] %17
w: glo- * ries shine. *||||
w: lord- * ly feasts. *||||
w: dark- * ened ways. *||||
V:2
 x | G2 x4 | x3 G2 x | x3 D2 x | x6 | G2 x4 | x3 G2 x | E2 x4 | x6 | D2 x2 G x | x6 | x3 D2 x | %12
w: |won-|lem’s|lead||Up-|bed.|no||Babe di-||spread,|
w: |bless|the|shep-||Their|bring.|He||kings and||time|
w: |tuned|a|raptur-||Greet-|earth.|the||bright- er||streams|
 x5 D | x6 | x3 G2 x | E2 x4 | x5 |] %17
w: en|||||
w: their|||||
w: life’s|||||
V:3
 [G,D] | G,A,[B,D] C2 [B,D] | [D,D]2 [D,C] [E,B,]2 [B,,G,] | [C,G,]2 [A,,G,] [D,F,]2 [D,F,] | %4
 [G,,G,]3- [G,,G,]2 G, | (G,A,)[B,D] C2 [B,D] | [D,D]2 [D,C] [E,B,]2 [B,,G,] | %7
 [C,G,]2 [A,,G,] (G,E,)[D,F,] | [G,,G,]3- [G,,G,]2 [D,F,] | (F,G,)[D,A,] G,2 [G,B,] | %10
 (A,B,)[D,C] [G,B,]2 [B,D] | (C[B,D])[G,D] ([F,A,][E,B,])[E,G,] | [D,F,]3- [D,F,]2 [F,C] | %13
 ([G,B,]A,)[G,B,] [C,C]2 [B,,D] | [D,D]2 [^D,C] [E,B,]2 [B,,G,] | [C,G,]2 [A,,G,] (G,E,)[D,F,] | %16
 [G,,D,G,]3- [G,,D,G,]2 |] %17
V:4
 x | D2 C2 x2 | x6 | x6 | x5 G, | D2 C2 x2 | x6 | x3 D,2 x | x6 | D,2 G,2 x2 | D,2 x4 | x6 | x6 | %13
 x A, x4 | x6 | x3 D,2 x | x5 |] %17

